svgs/sharp-regular/lock-hashtag.svg

<svg xmlns="http://www.w3.org/2000/svg" viewBox="0 0 448 512"><!--! Font Awesome Pro 6.6.0 by @fontawesome - https://fontawesome.com License - https://fontawesome.com/license (Commercial License) Copyright 2024 Fonticons, Inc. --><path d="M144 128l0 32 160 0 0-32c0-44.2-35.8-80-80-80s-80 35.8-80 80zM96 160l0-32C96 57.3 153.3 0 224 0s128 57.3 128 128l0 32 48 0 48 0 0 48 0 256 0 48-48 0L48 512 0 512l0-48L0 208l0-48 48 0 48 0zm0 48l-48 0 0 256 352 0 0-256-48 0-48 0-160 0-48 0zm112 16l0 24 0 24 32 0 0-24 0-24 48 0 0 24 0 24 24 0 24 0 0 48-24 0-24 0 0 32 24 0 24 0 0 48-24 0-24 0 0 24 0 24-48 0 0-24 0-24-32 0 0 24 0 24-48 0 0-24 0-24-24 0-24 0 0-48 24 0 24 0 0-32-24 0-24 0 0-48 24 0 24 0 0-24 0-24 48 0zm0 128l32 0 0-32-32 0 0 32z"/></svg>

<svg xmlns="http://www.w3.org/2000/svg" viewBox="0 0 448 512"><!--! Font Awesome Pro 6.4.0 by @fontawesome - https://fontawesome.com License - https://fontawesome.com/license (Commercial License) Copyright 2023 Fonticons, Inc. --><path d="M144 128v32H304V128c0-44.2-35.8-80-80-80s-80 35.8-80 80zM96 160V128C96 57.3 153.3 0 224 0s128 57.3 128 128v32h48 48v48V464v48H400 48 0V464 208 160H48 96zm0 48H48V464H400V208H352 304 144 96zm112 16v24 24h32V248 224h48v24 24h24 24v48H312 288v32h24 24v48H312 288v24 24H240V424 400H208v24 24H160V424 400H136 112V352h24 24V320H136 112V272h24 24V248 224h48zm0 128h32V320H208v32z"/></svg>
